Newaita/actions/22/draw-triangle.svg

<svg height="22" viewBox="0 0 22 22" width="22" xmlns="http://www.w3.org/2000/svg"><path d="m3.625 2.90625c-.496094.007812-.890625.410156-.890625.902344v14.554687c0 .5.402344.90625.902344.90625h14.554687c.367188 0 .695313-.222656.835938-.558593.140625-.339844.0625-.726563-.195313-.988282l-14.554687-14.550781c-.171875-.175781-.40625-.269531-.652344-.265625zm.917969 3.089844 11.464843 11.460937h-11.464843zm0 0" fill="#424242"/></svg>

<?xml version="1.0" encoding="UTF-8"?>
<svg xmlns="http://www.w3.org/2000/svg" xmlns:xlink="http://www.w3.org/1999/xlink" width="22px" height="22px" viewBox="0 0 22 22" version="1.1">
<g id="surface1">
<path style=" stroke:none;fill-rule:nonzero;fill:rgb(25.882354%,25.882354%,25.882354%);fill-opacity:1;" d="M 3.625 2.90625 C 3.128906 2.914062 2.734375 3.316406 2.734375 3.808594 L 2.734375 18.363281 C 2.734375 18.863281 3.136719 19.269531 3.636719 19.269531 L 18.191406 19.269531 C 18.558594 19.269531 18.886719 19.046875 19.027344 18.710938 C 19.167969 18.371094 19.089844 17.984375 18.832031 17.722656 L 4.277344 3.171875 C 4.105469 2.996094 3.871094 2.902344 3.625 2.90625 Z M 4.542969 5.996094 L 16.007812 17.457031 L 4.542969 17.457031 Z M 4.542969 5.996094 "/>
</g>
</svg>
